X:1390
T: Luathradawn's Jig
R: jig
C: Junior Crehan
Z: M.Hogan / J.Colburn
M: 6/8
Q: 1/4=165
L: 1/8
K: D
d|BAF AFE|DEF EDB,|A,B,D EDE|FEE E2d|
BAF AFE|DEF EDB,|A,B,D EDE|FDD D2 :|
D|DFA dcd|ede fdB|def edB|ABd e2f|
edB BAF|DFE EDB,|A,B,D EDE|1 FDD D2 :|2 FDD D3 ||
